src/pos-icons/amazon-alexa.svg

<svg height="24" viewBox="0 0 24 24" width="24" xmlns="http://www.w3.org/2000/svg"><path d="m12 2a10 10 0 0 0 -10 10 10 10 0 0 0 10 10 10 10 0 0 0 10-10 10 10 0 0 0 -10-10m-1.57 19.87v-1.96c0-.69-.43-1.34-1.08-1.61-2.44-1.04-4.18-3.47-4.18-6.3 0-3.74 3.05-6.83 6.83-6.83s6.83 3.09 6.83 6.83c0 4.43-3.44 8.61-8.4 9.87z"/></svg>

<?xml version="1.0" encoding="UTF-8"?><!DOCTYPE svg PUBLIC "-//W3C//DTD SVG 1.1//EN" "http://www.w3.org/Graphics/SVG/1.1/DTD/svg11.dtd"><svg xmlns="http://www.w3.org/2000/svg" xmlns:xlink="http://www.w3.org/1999/xlink" version="1.1" id="mdi-amazon-alexa" width="24" height="24" viewBox="0 0 24 24"><path d="M12,2A10,10 0 0,0 2,12A10,10 0 0,0 12,22A10,10 0 0,0 22,12A10,10 0 0,0 12,2M10.43,21.87V19.91C10.43,19.22 10,18.57 9.35,18.3C6.91,17.26 5.17,14.83 5.17,12C5.17,8.26 8.22,5.17 12,5.17C15.78,5.17 18.83,8.26 18.83,12C18.83,16.43 15.39,20.61 10.43,21.87Z" /></svg>
